X: 21353
T: JACK'S ALIVE
O: Irish air.
%R: jig
B: W. Hamilton "Universal Tune-Book" Vol. 2 Glasgow 1846 p.135 #3
S: http://s3-eu-west-1.amazonaws.com/itma.dl.printmaterial/book_pdfs/hamiltonvol2web.pdf
Z: 2016 John Chambers <jc:trillian.mit.edu>
M: 6/8
L: 1/8
K: G
% - - - - - - - - - - - - - - - - - - - - - - - - -
|:\
GAG B3 | ABA c3 | B/c/dB c2A | B2G AFD |\
GAG B3 | ABA c3 | B/c/dB cAF | G3 G3 :|
g2g gag | f2f fgf | e2e efg | {fg}a2g fed |\
g2g gag | f2f fgf | efg afd | g3 g2d |
gag gag | fgf fgf | efe efg | {fg}a2g fed |\
g3 Bcd | e3 ABc | dBG cAF | G3 G3 |]
% - - - - - - - - - - - - - - - - - - - - - - - - -

%%sep 1 1 500
%%sep 1 1 500

